scans_celtic_knot.svg

<?xml version="1.0" encoding="UTF-8" standalone="no"?>
<svg
   xmlns:dc="http://purl.org/dc/elements/1.1/"
   xmlns:cc="http://creativecommons.org/ns#"
   xmlns:rdf="http://www.w3.org/1999/02/22-rdf-syntax-ns#"
   xmlns:svg="http://www.w3.org/2000/svg"
   xmlns="http://www.w3.org/2000/svg"
   xmlns:xlink="http://www.w3.org/1999/xlink"
   id="svg36"
   version="1.1"
   viewBox="0 0 610 600"
   height="600"
   width="610">
  <metadata
     id="metadata40">
    <rdf:RDF>
      <cc:Work
         rdf:about="">
        <dc:format>image/svg+xml</dc:format>
        <dc:type
           rdf:resource="http://purl.org/dc/dcmitype/StillImage" />
        <dc:title>Celtic or pseudo-Celtic decorative knot to fill square box.  By AnonMoos (public domain)</dc:title>
      </cc:Work>
    </rdf:RDF>
  </metadata>
  <title
     id="title2">Celtic or pseudo-Celtic decorative knot to fill square box.  By AnonMoos (public domain)</title>
  <defs
     id="defs6">
    <path
       d="M486,526 H421.643 C375.055,526,337.287,488.232,337.287,441.643 C337.287,395.055,375.055,357.287,421.643,357.287 L473.096,357.286 C458.038,437.711,387.823,496,306,496 C224.177,496,153.963,437.712,138.904,357.287 L190.357,357.287 C236.945,357.287,274.713,395.055,274.713,441.643 C274.713,488.232,236.945,526,190.357,526 L126,526"
       id="SquareKnotPOne" />
    <path
       d="M486,126 H421.643 C375.055,126,337.287,163.768,337.287,210.357 C337.287,256.945,375.055,294.713,421.643,294.713 L473.096,294.713 C458.037,214.288,387.823,156,306,156 C224.177,156,153.962,214.289,138.904,294.714 L190.357,294.713 C236.945,294.713,274.713,256.945,274.713,210.357 C274.713,163.768,236.945,126,190.357,126 L126,126"
       id="SquareKnotPTwo" />
  </defs>
  <rect
     style="fill:#ffffff;stroke:none"
     id="rect8"
     height="600"
     width="610"
     y="0"
     x="0" />
  <g
     style="fill:none;stroke:#000000;stroke-width:42"
     id="g34"
     transform="matrix(1.3,0,0,-1.3,-94,724.5)">
    <use
       height="100%"
       width="100%"
       y="0"
       x="0"
       id="use10"
       xlink:href="#SquareKnotPOne" />
    <use
       height="100%"
       width="100%"
       y="0"
       x="0"
       style="stroke:#ffffff;stroke-width:17.5"
       id="use12"
       xlink:href="#SquareKnotPOne" />
    <use
       height="100%"
       width="100%"
       y="0"
       x="0"
       id="use14"
       xlink:href="#SquareKnotPTwo" />
    <use
       height="100%"
       width="100%"
       y="0"
       x="0"
       style="stroke:#ffffff;stroke-width:17.5"
       id="use16"
       xlink:href="#SquareKnotPTwo" />
    <g
       style="stroke-linejoin:round"
       id="g26">
      <path
         id="path18"
         d="M 146,126 H 106 L 506,526 H 466" />
      <path
         style="stroke:#ffffff;stroke-width:17.5"
         id="path20"
         d="M 147,126 H 106 L 506,526 H 465" />
      <path
         id="path22"
         d="M 146,526 H 106 L 506,126 h -40" />
      <path
         style="stroke:#ffffff;stroke-width:17.5"
         id="path24"
         d="M 147,526 H 106 L 506,126 h -41" />
    </g>
    <path
       style="stroke:#ffffff;stroke-width:6"
       id="path28"
       d="M 496.686,290.297 C 498.891,302.07 500,314.022 500,326 c 0,11.978 -1.109,23.93 -3.314,35.703 m -381.372,0.001 C 113.11,349.93 112,337.978 112,326 c 0,-11.978 1.109,-23.93 3.314,-35.703" />
    <path
       id="path30"
       d="m 191.829,357.3 c 45.436,0.793 82.078,37.435 82.871,82.871 m 62.6,-228.342 c 0.793,45.436 37.435,82.078 82.871,82.871 m 31.547,118.856 c -14.334,23.856 -34.306,43.828 -58.162,58.162 M 160.282,238.444 c 14.334,-23.856 34.306,-43.828 58.162,-58.162 m 84.589,315.692 c -27.827,-0.486 -55.109,-7.796 -79.45,-21.289 m 85.384,-318.659 c 27.827,0.486 55.109,7.796 79.45,21.289 M 191.829,126.013 c 45.436,0.793 82.078,37.435 82.871,82.872 M 420.171,525.987 C 374.735,525.194 338.093,488.552 337.3,443.115" />
    <path
       style="stroke:#ffffff;stroke-width:17.5"
       id="path32"
       d="m 190.357,357.287 c 46.588,0 84.356,37.768 84.356,84.356 m 62.574,-231.286 c 0,46.588 37.768,84.356 84.356,84.356 M 453.224,411 C 438.304,436.843 416.843,458.304 391,473.224 M 158.776,241 C 173.696,215.157 195.157,193.696 221,178.776 M 306,496 c -29.841,0 -59.157,-7.855 -85,-22.776 M 306,156 c 29.841,0 59.157,7.855 85,22.776 M 190.357,126 c 46.588,0 84.356,37.768 84.356,84.357 M 421.643,526 c -46.588,0 -84.356,-37.768 -84.356,-84.357" />
  </g>
</svg>

<?xml version="1.0" standalone="no"?>
<!DOCTYPE svg PUBLIC "-//W3C//DTD SVG 1.0//EN" "http://www.w3.org/TR/2001/REC-SVG-20010904/DTD/svg10.dtd">
<svg xmlns:svg="http://www.w3.org/2000/svg" xmlns:xlink="http://www.w3.org/1999/xlink" xmlns="http://www.w3.org/2000/svg" width="610" height="600" viewBox="0 0 610 600">
<title>Celtic or pseudo-Celtic decorative knot to fill square box.  By AnonMoos (public domain)</title>
<defs>
<path id="SquareKnotPOne" d="M486,526
H421.643
C375.055,526,337.287,488.232,337.287,441.643
C337.287,395.055,375.055,357.287,421.643,357.287
L473.096,357.286
C458.038,437.711,387.823,496,306,496
C224.177,496,153.963,437.712,138.904,357.287
L190.357,357.287
C236.945,357.287,274.713,395.055,274.713,441.643
C274.713,488.232,236.945,526,190.357,526
L126,526"/>
<path id="SquareKnotPTwo" d="M486,126
H421.643
C375.055,126,337.287,163.768,337.287,210.357
C337.287,256.945,375.055,294.713,421.643,294.713
L473.096,294.713
C458.037,214.288,387.823,156,306,156
C224.177,156,153.962,214.289,138.904,294.714
L190.357,294.713
C236.945,294.713,274.713,256.945,274.713,210.357
C274.713,163.768,236.945,126,190.357,126
L126,126"/>
</defs>
<rect x="0" y="0" width="610" height="600" stroke="none" fill="rgb(255,255,255)"/>
<g transform="translate(-94,724.5) scale(1.3,-1.3)" stroke-width="42" stroke="rgb(0,0,0)" fill="none">
<use xlink:href="#SquareKnotPOne"/>
<use stroke-width="17.5" stroke="rgb(255,255,255)" xlink:href="#SquareKnotPOne"/>
<use xlink:href="#SquareKnotPTwo"/>
<use stroke-width="17.5" stroke="rgb(255,255,255)" xlink:href="#SquareKnotPTwo"/>
<g stroke-linejoin="round">
<path d="M146,126
H106
L506,526
H466"/>
<path stroke-width="17.5" stroke="rgb(255,255,255)" d="M147,126
H106
L506,526
H465"/>
<path d="M146,526
H106
L506,126
H466"/>
<path stroke-width="17.5" stroke="rgb(255,255,255)" d="M147,526
H106
L506,126
H465"/>
</g>
<path stroke-width="6" stroke="rgb(255,255,255)" d="M496.686,290.297
C498.891,302.07,500,314.022,500,326
C500,337.978,498.891,349.93,496.686,361.703
M115.314,361.704
C113.11,349.93,112,337.978,112,326
C112,314.022,113.109,302.07,115.314,290.297"/>
<path d="M191.829,357.3
C237.265,358.093,273.907,394.735,274.7,440.171
M337.3,211.829
C338.093,257.265,374.735,293.907,420.171,294.7
M451.718,413.556
C437.384,437.412,417.412,457.384,393.556,471.718
M160.282,238.444
C174.616,214.588,194.588,194.616,218.444,180.282
M303.033,495.974
C275.206,495.488,247.924,488.178,223.583,474.685
M308.967,156.026
C336.794,156.512,364.076,163.822,388.417,177.315
M191.829,126.013
C237.265,126.806,273.907,163.448,274.7,208.885
M420.171,525.987
C374.735,525.194,338.093,488.552,337.3,443.115"/>
<path stroke-width="17.5" stroke="rgb(255,255,255)" d="M190.357,357.287
C236.945,357.287,274.713,395.055,274.713,441.643
M337.287,210.357
C337.287,256.945,375.055,294.713,421.643,294.713
M453.224,411
C438.304,436.843,416.843,458.304,391,473.224
M158.776,241
C173.696,215.157,195.157,193.696,221,178.776
M306,496
C276.159,496,246.843,488.145,221,473.224
M306,156
C335.841,156,365.157,163.855,391,178.776
M190.357,126
C236.945,126,274.713,163.768,274.713,210.357
M421.643,526
C375.055,526,337.287,488.232,337.287,441.643"/>
</g>
</svg>
